X:325
T:Small Fee, A
R:polka 32
C: Martin Ellison
S: The composer
O: England
M: 4/4
L: 1/8
Q: 2/4=90
K:D
(3ABc |"D"dAFE DFAd|"A"cBGE BE=cE|"A"cBGF EFGE|"D"DEFG "A"AABc|
"D"dAFE DFAd|"A"cBGE BG=cE|"A"cBGF EFGE|1"D" Dddc d2:||2"D" Dddc d3=c||
K:G
|:"G" B2 BA GABd|"C" e2 e2 "G" dBgB|"C" e2 e2 "G" dBgB|"C" ccBG "D" A4|
"G" BcBA GABd|"C" e2e2 "G" dBc^c|"D" d^cd^d "D" e=cAF|1"G" G8:||2 "G" G6||

